dist/img/nav_right.svg

<svg width="20" height="16" viewBox="0 0 20 16" fill="none" xmlns="http://www.w3.org/2000/svg">
<path d="M0.932487 9.16487H15.7487L12.295 13.6789C11.9151 14.1805 11.9151 14.9556 12.295 15.4572C12.6749 15.9587 13.262 15.9587 13.6419 15.4572L19.375 7.88817L18.7188 7.02184L13.6419 0.36477C13.4693 0.136789 13.2275 0 12.9857 0C12.744 0 12.5022 0.136789 12.3295 0.36477C11.9496 0.86633 11.9496 1.64147 12.3295 2.14303L15.7487 6.65707H0.932487C0.414438 6.65707 0 7.20422 0 7.93377C0 8.61771 0.414438 9.16487 0.932487 9.16487Z" fill="black"/>
</svg>

<svg fill="none" xmlns="http://www.w3.org/2000/svg" viewBox="0 0 20 16"><path d="M.932 9.165H15.75l-3.454 4.514c-.38.502-.38 1.277 0 1.778.38.502.967.502 1.347 0l5.733-7.569-.656-.866L13.642.365C13.469.137 13.227 0 12.986 0c-.242 0-.484.137-.657.365-.38.501-.38 1.276 0 1.778l3.42 4.514H.932C.414 6.657 0 7.204 0 7.934c0 .684.414 1.23.932 1.23z" fill="#000"/></svg>
